!!!OTL: Farmer's Curst Wife
!!!ONM: 9.
**kern
*clefG2
*k[b-e-]
*B-:
*M3/4
*MM132
{4f
=1
4b-
4b-
4b-
=2
2f
4f
=3
4d
4f
4d
=4
4.B-
8r
4r}
=5
{2b-
4r
=6
2f
4r
=7
4d
4f
4d
=8
4.B-
8r}
{4b-
=9
4dd
4b-
4b-
=10
(4b-
4g)
4f
=11
4f
4g
4f
=12
4.d
8r}
{4f
=13
4d
4d
4d
=14
4.f
8r
4d
=15
2d
4d
=16
4.f
8r}
=||
{8d
8d
=17
2d
4d
=18
2f
4f
=19
2d
4d
=20
2f
4f
=21
2f
4f
=22
4f
4g
4a
=23
[2.b-
=24
4b-]
4r}
==
*-
!!!CNT: Folksongs of Maritime Canada
!!!MRD: 1928///-1932///
!!!OCL: Helen Creighton
!!!YOR: Songs and Ballads from Nova Scotia
!!!PPR: J.M. Dent & Sons, Limited
!!!PPP: Toronto, Canada
!!!PDT: 1932///
!!!reprint: Dover Publications, 1992: ISBN 0-486-21703-5
!!!ENC1: Craig Stuart Sapp (music and bibliographic data)                       
!!!ENC2: Marcus Pearce (phrase markings and key designations)                   
!!!ENC3: Darrell Conklin (phrase markings and key designations)   
!!!END: 2002/04/10/
!!!EEV: 2004/06/05
!!!MPN: Mr. Faulkner and Mr. Ben Henneberry
!!!PPG: 18
!!!EFL: 9/152
!!!ARE: Canada; Nova Scotia
!!!verses: 12
!!!VTS: 3682476584
